X:970
T:Reel 970
M:4/4
K:Amin
L:1/8
E>D (3CB,G, C>E (3A,A,B, |C>E (3EGG A2G>E| (3CDC  (3DCB, C>A, (3B,G,G, |D>G, (3G,G,G, D2:||: (3GAG A>G (3GAG A>G (3EGG | (3GFE D>B, G>B, (3B,G,G | (3FGA AG FDE2|G>G, (3G,G,G, D>G, (3G,A,B, :||2 (3GFG A>F  (3GFE DB,|C>A, (3A,G,A, A2||A,B,A,B, CDED|
